T: Wounded Hussar, The
M: 6/8
L: 1/8
K: Gmin
DBA B2 A/G/ | A/B/c/B/A/G/ FGA | BdB cB/A/G/F/ | DGG G2 :|Bdd d2 c/B/ | Acc c2 f | d>g^f g>ab | dg^f g2 g/a/ | bag f>ed | d/c/B/A/f  FGA | BdB d/c/B/A/G/F/ | DGG G2:|
